X: 6462
T: Cat In The Corner, The
R: slide
M: 12/8
K: Gmajor
|:A|B2 B A2 G BdB AGA|B2 e d2 B ABA A2 c|
B3 AGA B/c/dB AGA|B2 e d2 B G3 G2:|
d|e2 e edB e2 f g3|BcB d2 B A3 AB/c/d|
e3 e2 d e2 f gec|BAB edB G3 G2 d|
e3 edB e2 f g2 d|B2 c d2 B A3- AGA|
BcB AGA B/c/dB AGA|B2 e d2 B G3 G2||

